X: 292
T:Slashers
% Nottingham Music Database
S:FTB, via EF
M:6/8
K:D
P:A
A|"D"ded dAF|"Em"ABA "A7"ABc|"D"ded dAF|"Em"Eee "A7"e2f|
"D"ded dAF|"Em"ABA "A7"Aag|"D"fef "G"dBA|"D"Bdd d2:|
P:B
A|"D"dfa afd|"A7"cde ecA|"D"dfa afd|"D"faa "A7"a2A|
"D"dfa afd|"A7"cde eag|"D"fef "G"dBA|"D"Bdd d2:|<end>
<start>
